X: 9776
T: Den Toppede Høne Fra Vendsyssel
R: slide
M: 12/8
K: Amajor
A2A A2A ABc dcB|A2A A2A AGA BGE|A2A A2A ABc d3|cBA GFG B3 A3:|
|:a3 A3 cBc dcd|f3 B3 cBc dcd|efg a3 fdf a3|gfe ^def e3 e3:|
|:a3 a3 a2e c2e|a3 a3 gab gab|a3 a3 a2e c2e|f2e d2A B3 A3:|

